X: 8
T: Missa Coda di pavon / Credo
N: Derived from Mar1002c-Missa_Coda_di_pavon-Credo.krn
C: Johannes Martini
%%abc-version 2.0
%%abcx-abcm2ps-target-version 5.9.1 (29 Sep 2008)
%%abc-creator hum2abc beta
%%abcx-conversion-date 2019/02/17 07:19:40
%%abc-edited-by Jesse Rodin
%%abc-edited-by Chris Gage 11-13-2013
%%abcx-initial-encoding-date 2014/06/21/
%%humdrum-veritas 554192177
%%humdrum-veritas-data 1837227306
%%linebreak <none>
%%barnumbers 0
L: 1/4
M: 4/2
Q: 1/2=120
%%staves [1 2 3 4]
V: 1 clef=treble
V: 2 clef=treble-8
V: 3 clef=treble-8
V: 4 clef=bass
K: C
[V:1] G4G4 | 
[V:2] d8 | 
[V:3] g4g4 | 
[V:4] G,4G,4 | 
[V:1] A4A4 | 
[V:2] d8 | 
[V:3] f4f4 | 
[V:4] D,4D,4 | 
[V:1] B4d4- | 
[V:2] d8 | 
[V:3] g8 | 
[V:4] G,8 | 
[V:1] d2c2c4- | 
[V:2] d4g4 | 
[V:3] f4e4 | 
[V:4] _B,4C4 | 
[V:1] c2B2B3A | 
[V:2] g8 | 
[V:3] d8 | 
[V:4] G,8 | 
[V:1] c4c4- | 
[V:2] e4f4 | 
[V:3] c8 | 
[V:4] A,4F,3E, | 
[V:1] c2c2c2BA | 
[V:2] g8 | 
[V:3] e6e2 | 
[V:4] C,8 | 
[V:1] G4c4 | 
[V:2] z4g4 | 
[V:3] e4e4 | 
[V:4] C,4C,4 | 
[V:1] B4A4 | 
[V:2] g4f4 | 
[V:3] d8 | 
[V:4] G,4D,4 | 
[V:1] G4G2A2- | 
[V:2] g4e4 | 
[V:3] B4c4 | 
[V:4] E,4C,4 | 
[V:1] A2G4^F2 | 
[V:2] d8 | 
[V:3] A8 | 
[V:4] D,8 | 
[V:1] G4z4 | 
[V:2] B2e4dc | 
[V:3] G8 | 
[V:4] E,2C,3D,E,F, | 
[V:1] D4E4 | 
[V:2] B2G2G4- | 
[V:3] z4c4 | 
[V:4] G,4C,4- | 
[V:1] E2E2D4 | 
[V:2] G4z4 | 
[V:3] c2c2B4 | 
[V:4] C,4G,4 | 
[V:1] E4F4- | 
[V:2] G4A4 | 
[V:3] c4d4 | 
[V:4] E,4D,4- | 
[V:1] F4G4- | 
[V:2] B4c4- | 
[V:3] d4e4- | 
[V:4] D,4C,4- | 
[V:1] G4A4 | 
[V:2] c4A3G | 
[V:3] e4f4 | 
[V:4] C,4F,4 | 
[V:1] c4B4- | 
[V:2] G4z4 | 
[V:3] e4d4- | 
[V:4] C,4G,4- | 
[V:1] B2c2d4 | 
[V:2] G2A4B2 | 
[V:3] d2e2f4 | 
[V:4] G,2F,E,D,4 | 
[V:1] e4d2c2- | 
[V:2] c4d2g2- | 
[V:3] g4f2e2 | 
[V:4] C,4z4 | 
[V:1] c2B2c4- | 
[V:2] g4e4- | 
[V:3] d4c4- | 
[V:4] G,4C,4- | 
[V:1] c4G4 | 
[V:2] e4e4 | 
[V:3] c4z4 | 
[V:4] C,4E,4 | 
[V:1] A2B3AA2- | 
[V:2] f2d4c2 | 
[V:3] z8 | 
[V:4] D,4F,4 | 
[V:1] A2G2A4 | 
[V:2] B4A3B | 
[V:3] e4f4 | 
[V:4] G,4D,2F,2 | 
[V:1] G4F4- | 
[V:2] c4A4 | 
[V:3] e4d4- | 
[V:4] C,4D,4 | 
[V:1] F4E4- | 
[V:2] _B4G4- | 
[V:3] d4c4- | 
[V:4] _B,,4C,4- | 
[V:1] E4D4 | 
[V:2] G4z4 | 
[V:3] c4z4 | 
[V:4] C,4z4 | 
[V:1] E2E2D4 | 
[V:2] z8 | 
[V:3] c4B2B2 | 
[V:4] z8 | 
[V:1] C2E2F2G2- | 
[V:2] z8 | 
[V:3] c4A2G2- | 
[V:4] z8 | 
[V:1] G2FED4 | 
[V:2] z8 | 
[V:3] G2c4B2 | 
[V:4] z8 | 
[V:1] C4z2G2 | 
[V:2] z8 | 
[V:3] c2z2c2e2- | 
[V:4] z8 | 
[V:1] B4A2c2 | 
[V:2] z8 | 
[V:3] e2d2f2e2 | 
[V:4] z8 | 
[V:1] B2d4c2 | 
[V:2] z8 | 
[V:3] g4f2e2 | 
[V:4] z8 | 
[V:1] B2A4G2 | 
[V:2] z8 | 
[V:3] d4c2B2 | 
[V:4] z8 | 
[V:1] F2E4G2- | 
[V:2] z8 | 
[V:3] A4c3d | 
[V:4] z8 | 
[V:1] GAB3cd2- | 
[V:2] z8 | 
[V:3] e3fg3f | 
[V:4] z8 | 
[V:1] dcA2c4 | 
[V:2] z8 | 
[V:3] d2f4e2 | 
[V:4] z8 | 
[V:1] B2A3GG2- | 
[V:2] z8 | 
[V:3] d3cd2B2 | 
[V:4] z8 | 
[V:1] G2^F2G4- | 
[V:2] z8 | 
[V:3] A4G4 | 
[V:4] z8 | 
[V:1] G4z4 | 
[V:2] z4(3:2:2G4G2- | 
[V:3] z4(3:2:1c4/511- | 
[V:4] z4(3:2:2C,4E,2- | 
[V:1] z4(3:2:2G4G2- | 
[V:2] (3:2:4G2A4c4z2 | 
[V:3] (3c2d4e6- | 
[V:4] (3:2:4E,2D,4C,4C2- | 
[V:1] (3G2A4B6- | 
[V:2] (3z2c4d6- | 
[V:3] (3:2:4e2f4g4z2 | 
[V:4] (3C2A,4G,6- | 
[V:1] (3:2:4B2c4d4z2 | 
[V:2] (3:2:4d2c4A4_B2- | 
[V:3] (3z2e4f6 | 
[V:4] (3:2:4G,2A,4D,4_B,,2- | 
[V:1] (3z2e4f6 | 
[V:2] (3B2G4_B6 | 
[V:3] (3e2c4d6- | 
[V:4] (3:2:4B,,2C,4_B,,4z2 | 
[V:1] (3:2:4e2d4c4z2 | 
[V:2] (3:2:4c2d4g4f2- | 
[V:3] (3:2:4d2f4e4d2- | 
[V:4] (3:2:4z2_B,4C4D2- | 
[V:1] (3:2:4z2f4e4d2- | 
[V:2] (3:2:4f2_b4g4_b2- | 
[V:3] (3:2:2d6g6- | 
[V:4] (3:2:4D2_B,4C4G,2- | 
[V:1] (3d4c2c6 | 
[V:2] (3b6a4g2- | 
[V:3] (3:2:4g2f4e4d2- | 
[V:4] (3:2:4G,2_B,4C4G,2- | 
[V:1] (3B2B2A2c4 | 
[V:2] g4e4 | 
[V:3] d4c4 | 
[V:4] (3:2:1G,6C,4 | 
[V:1] c4z4 | 
[V:2] z4e4 | 
[V:3] z4c4 | 
[V:4] C,4E,4 | 
[V:1] z8 | 
[V:2] f6e2 | 
[V:3] d6c2 | 
[V:4] D,4F,4 | 
[V:1] G4A4- | 
[V:2] d3ef4 | 
[V:3] B4A2d2- | 
[V:4] G,4F,4- | 
[V:1] A2G2F4 | 
[V:2] z4F4 | 
[V:3] d2c4B2 | 
[V:4] F,2E,2D,4 | 
[V:1] E2A3GG2- | 
[V:2] G2A2B2c2 | 
[V:3] c4B2G2 | 
[V:4] C,2F,2G,2E,2 | 
[V:1] G2^F2G4 | 
[V:2] d4B4 | 
[V:3] A4G3A | 
[V:4] D,4E,2G,2- | 
[V:1] z8 | 
[V:2] z8 | 
[V:3] B2c4B2 | 
[V:4] G,2F,E,D,4 | 
[V:1] G3AB2c2- | 
[V:2] e3fg2f2 | 
[V:3] c2e2d2c2 | 
[V:4] C,4G,2A,2 | 
[V:1] c2B2c4 | 
[V:2] g4e4- | 
[V:3] d4c4- | 
[V:4] G,4C,4- | 
[V:1] G2c3BA2- | 
[V:2] e4c4 | 
[V:3] c2A3Gc2 | 
[V:4] C,4F,4 | 
[V:1] A2GFE4 ||  
[V:2] f4g4 ||  
[V:3] d2c2c4 ||  
[V:4] D,4C,4 ||  
[V:1]  [K:C] [K:clef=treble][M:4/2]G8 | 
[V:2]  [K:C] [K:clef=treble-8][M:4/2]z8 | 
[V:3]  [K:C] [K:clef=treble-8][M:4/2]z8 | 
[V:4]  [K:C] [K:clef=bass][M:4/2]G,6A,2 | 
[V:1] G4A4 | 
[V:2] z8 | 
[V:3] z8 | 
[V:4] B,4C4 | 
[V:1] A4B4 | 
[V:2] z8 | 
[V:3] z8 | 
[V:4] D4G,4 | 
[V:1] z8 | 
[V:2] g6f2 | 
[V:3] z8 | 
[V:4] C6D2 | 
[V:1] z8 | 
[V:2] g4e4 | 
[V:3] z8 | 
[V:4] E4C4 | 
[V:1] d4d2d2- | 
[V:2] d4z4 | 
[V:3] z8 | 
[V:4] D4G,4- | 
[V:1] d2c2B3A | 
[V:2] z8 | 
[V:3] z8 | 
[V:4] G,2G,2G,4 | 
[V:1] A4z4 | 
[V:2] f4g2g2 | 
[V:3] z8 | 
[V:4] F,4E,4 | 
[V:1] z8 | 
[V:2] f2a4gf | 
[V:3] z8 | 
[V:4] D,8 | 
[V:1] c4d4 | 
[V:2] e4d4 | 
[V:3] z8 | 
[V:4] A,4B,2B,2 | 
[V:1] c2e4dc | 
[V:2] e2g4f2 | 
[V:3] z8 | 
[V:4] C4A,4 | 
[V:1] B4A4 | 
[V:2] g2g2f4 | 
[V:3] z8 | 
[V:4] G,4D4 | 
[V:1] B2d4^c2 | 
[V:2] g2d2e4 | 
[V:3] z8 | 
[V:4] G,2B,2A,4 | 
[V:1] d8 | 
[V:2] d4z4 | 
[V:3] z8 | 
[V:4] D,8 | 
[V:1] z8 | 
[V:2] f4f4 | 
[V:3] z8 | 
[V:4] D6D2 | 
[V:1] z8 | 
[V:2] f4e4 | 
[V:3] z8 | 
[V:4] D4C4 | 
[V:1] c4c4 | 
[V:2] z8 | 
[V:3] z8 | 
[V:4] A,6A,2 | 
[V:1] c4B4 | 
[V:2] c4d2e2- | 
[V:3] z8 | 
[V:4] A,4G,4 | 
[V:1] z8 | 
[V:2] edc4B2 | 
[V:3] z8 | 
[V:4] C,2E,2D,4 | 
[V:1] G4A2B2- | 
[V:2] c4z4 | 
[V:3] z8 | 
[V:4] C,2E,2F,2G,2- | 
[V:1] BAG4^F2 | 
[V:2] G4A4 | 
[V:3] z8 | 
[V:4] G,2F,E,D,4 | 
[V:1] G4z4 | 
[V:2] G4c4 | 
[V:3] z8 | 
[V:4] E,2C,4C,2 | 
[V:1] D4E4 | 
[V:2] B4c4 | 
[V:3] z8 | 
[V:4] G,2G,2C,4 | 
[V:1] D4G4 | 
[V:2] z4e4 | 
[V:3] z8 | 
[V:4] z2G,4G,2 | 
[V:1] z4B4 | 
[V:2] f4g4 | 
[V:3] z8 | 
[V:4] A,4G,4 | 
[V:1] c4d4 | 
[V:2] e4d2g2- | 
[V:3] z8 | 
[V:4] A,4B,4 | 
[V:1] B4A4 | 
[V:2] g2fefedc | 
[V:3] z8 | 
[V:4] G,3F,D,4 | 
[V:1] G2c2B2A2- | 
[V:2] B2A2d4 | 
[V:3] z8 | 
[V:4] E,2F,2G,2D,2 | 
[V:1] AGG4^F2 | 
[V:2] c2B2A4 | 
[V:3] z8 | 
[V:4] F,2G,2D,4 | 
[V:1] G8- | 
[V:2] G4z4 | 
[V:3] G8- | 
[V:4] z4D4 | 
[V:1] G8 | 
[V:2] d4B4 | 
[V:3] G8 | 
[V:4] B,4G,4 | 
[V:1] z4A4 | 
[V:2] A4c4 | 
[V:3] c8 | 
[V:4] F,4A,4 | 
[V:1] B4B2B2 | 
[V:2] B4G4 | 
[V:3] z4d4 | 
[V:4] G,8 | 
[V:1] c8 | 
[V:2] z4g4 | 
[V:3] e8 | 
[V:4] C,4E,4 | 
[V:1] z4d4 | 
[V:2] a4f2a2- | 
[V:3] f6e2 | 
[V:4] D,8 | 
[V:1] e4e4 | 
[V:2] a2gfe4 | 
[V:3] c4z4 | 
[V:4] A,8 | 
[V:1] f4e2d2- | 
[V:2] d2f2g2f2 | 
[V:3] d4e2f2- | 
[V:4] D,4C,2D,2 | 
[V:1] dcc4B2 | 
[V:2] a2g3fg2 | 
[V:3] fge2d4 | 
[V:4] F,2C,2G,4 | 
[V:1] c3BG4 | 
[V:2] e6c2 | 
[V:3] c4z4 | 
[V:4] C,8 | 
[V:1] c4B2d2- | 
[V:2] c4z4 | 
[V:3] e4d3c | 
[V:4] C,4G,4 | 
[V:1] dBcdB2A2- | 
[V:2] f4d2f2- | 
[V:3] A4G2c2- | 
[V:4] F,4G,2F,2- | 
[V:1] AGG4^F2 | 
[V:2] f2e2d3c | 
[V:3] c2B2A4 | 
[V:4] F,2G,2D,4 | 
[V:1] G4z4 | 
[V:2] B3AG2B2 | 
[V:3] G4z2d2 | 
[V:4] z2D4B,2 | 
[V:1] z4z2A2 | 
[V:2] A2d4c2 | 
[V:3] e2g4f2 | 
[V:4] C2B,2A,4 | 
[V:1] B2d4c2 | 
[V:2] d4z2a2- | 
[V:3] g2d2e4 | 
[V:4] G,2B,2A,4 | 
[V:1] d4z2e2 | 
[V:2] a2gfe4 | 
[V:3] f2e2c4 | 
[V:4] D,4A,4 | 
[V:1] f3ed4 | 
[V:2] d3cA4 | 
[V:3] z2d2f4 | 
[V:4] D,8 | 
[V:1] c4z2f2 | 
[V:2] z2a2f3e | 
[V:3] e4d4 | 
[V:4] A,4_B,2D2 | 
[V:1] e2c2d4 | 
[V:2] c4A3B | 
[V:3] z2e2f4 | 
[V:4] A,4D,2F,2 | 
[V:1] e4f3e | 
[V:2] c4A2_B2- | 
[V:3] g4d2f2- | 
[V:4] C,4D,2_B,,2- | 
[V:1] dcc4B2 | 
[V:2] BAG2z2g2- | 
[V:3] f2e2d4 | 
[V:4] B,,2C,2G,4 | 
[V:1] c8 | 
[V:2] g2g2e3f | 
[V:3] c8 | 
[V:4] C,8 | 
[V:1] [M:3/1]d12 | 
[V:2] [M:3/1]d8d4 | 
[V:3] [M:3/1]z12 | 
[V:4] [M:3/1]G,6A,2B,4 | 
[V:1] c8c4 | 
[V:2] e6d2c4 | 
[V:3] z12 | 
[V:4] A,6B,2C4 | 
[V:1] d8c4 | 
[V:2] B4d4e4 | 
[V:3] g12 | 
[V:4] G,8C,4 | 
[V:1] B4A8 | 
[V:2] d6A2d4 | 
[V:3] f8f4 | 
[V:4] D,12 | 
[V:1] G4E4F4 | 
[V:2] B6c2d4 | 
[V:3] g8f4 | 
[V:4] G,8z4 | 
[V:1] G8D4 | 
[V:2] B8G4- | 
[V:3] e4d8 | 
[V:4] G,8G,4 | 
[V:1] E4F6G2 | 
[V:2] G4F8 | 
[V:3] c4A4B4 | 
[V:4] C,4D,8 | 
[V:1] E4A8 | 
[V:2] G4F4A4 | 
[V:3] c8c4 | 
[V:4] C,4F,8 | 
[V:1] F4G4c4 | 
[V:2] B4c8 | 
[V:3] d4e8 | 
[V:4] D,4C,8 | 
[V:1] B4A6G2 | 
[V:2] d4f4d4 | 
[V:3] d8B4 | 
[V:4] G,4D,4G,4 | 
[V:1] G8^F4 | 
[V:2] e4d8 | 
[V:3] c4A8 | 
[V:4] C,4D,8 | 
[V:1] G8D4 | 
[V:2] B12 | 
[V:3] G12 | 
[V:4] E,6F,2G,4 | 
[V:1] E8E4 | 
[V:2] G8g4 | 
[V:3] c12 | 
[V:4] C,12 | 
[V:1] D8G4- | 
[V:2] g8d4 | 
[V:3] B8B4 | 
[V:4] G,12 | 
[V:1] G4A4B4 | 
[V:2] e8d4 | 
[V:3] c8d4 | 
[V:4] C,8z4 | 
[V:1] c8d4 | 
[V:2] c8z4 | 
[V:3] e4f8 | 
[V:4] C4A,4B,4- | 
[V:1] d4e6d2 | 
[V:2] d4c4e4 | 
[V:3] g8c4- | 
[V:4] B,4C8 | 
[V:1] c8B4 | 
[V:2] f4g8 | 
[V:3] c4d8 | 
[V:4] A,4G,8 | 
[V:1] c8z4 | 
[V:2] e8c4 | 
[V:3] c12 | 
[V:4] C,8C,4 | 
[V:1] B8A4 | 
[V:2] d8f4 | 
[V:3] z12 | 
[V:4] G,6F,2D,4 | 
[V:1] c6B2A4 | 
[V:2] e4c4A4 | 
[V:3] z12 | 
[V:4] C,4F,6E,2 | 
[V:1] G4E4F4 | 
[V:2] c8A4- | 
[V:3] e8d4 | 
[V:4] C,8D,4- | 
[V:1] D6C2D4 | 
[V:2] A4_B8 | 
[V:3] f6e2d4 | 
[V:4] D,4_B,,8 | 
[V:1] E8z4 | 
[V:2] G8g4 | 
[V:3] c12 | 
[V:4] C,12 | 
[V:1] z12 | 
[V:2] g6f2e4 | 
[V:3] z12 | 
[V:4] C8C4 | 
[V:1] z12 | 
[V:2] d6e2f4 | 
[V:3] z12 | 
[V:4] B,6C2D4 | 
[V:1] c8c4 | 
[V:2] e8f4 | 
[V:3] z12 | 
[V:4] C6B,2A,4 | 
[V:1] B6c2d4 | 
[V:2] g8d4 | 
[V:3] z12 | 
[V:4] G,8B,4 | 
[V:1] c6B2A4 | 
[V:2] e4f8 | 
[V:3] c8c4 | 
[V:4] A,6G,2F,2E,2 | 
[V:1] G8F4 | 
[V:2] d4e4A4- | 
[V:3] B6c2d4 | 
[V:4] G,4E,4D,4 | 
[V:1] A6G2F2E2 | 
[V:2] A4F4A4 | 
[V:3] c6B2A4 | 
[V:4] F,12 | 
[V:1] G6E2F2G2 | 
[V:2] B4G4A4 | 
[V:3] G4c4d4 | 
[V:4] E,8D,4 | 
[V:1] E4D8 | 
[V:2] G4z4G4 | 
[V:3] c8B4 | 
[V:4] E,4F,4G,4 | 
[V:1] C4E4F4 | 
[V:2] G8A4 | 
[V:3] c8d4 | 
[V:4] C,4E,4D,4 | 
[V:1] G6F2G4 | 
[V:2] c6d2e4 | 
[V:3] e8c4 | 
[V:4] C,12 | 
[V:1] A4c4B4 | 
[V:2] d4c4G4- | 
[V:3] f4e4g4- | 
[V:4] z12 | 
[V:1] d8c4 | 
[V:2] G4A8 | 
[V:3] g4f4e4 | 
[V:4] z12 | 
[V:1] d4B6A2 | 
[V:2] B4G4d4 | 
[V:3] d8G4 | 
[V:4] z12 | 
[V:1] G8^F4 | 
[V:2] d6c2c3B | 
[V:3] B4A8 | 
[V:4] z12 | 
[V:1] G8F4 | 
[V:2] e6d2c4 | 
[V:3] G8A4 | 
[V:4] E,8F,4 | 
[V:1] D4G8 | 
[V:2] B8e4 | 
[V:3] B4G4c4- | 
[V:4] G,8E,4 | 
[V:1] A4B4G4 | 
[V:2] f4g8 | 
[V:3] c4d4e4 | 
[V:4] A,4G,8 | 
[V:1] c8d4 | 
[V:2] z4z4c4- | 
[V:3] c4f8 | 
[V:4] A,4F,8 | 
[V:1] c4f8 | 
[V:2] c4A4_B4 | 
[V:3] e4d8 | 
[V:4] C,4D,4_B,,4 | 
[V:1] e4d6c2 | 
[V:2] G8g4- | 
[V:3] c4B4c4 | 
[V:4] C,4G,4E,4 | 
[V:1] c8B4 | 
[V:2] g12 | 
[V:3] e4d8 | 
[V:4] C,4G,8 | 
[V:1] c12 |]  
[V:2] g12 |]  
[V:3] c12 |]  
[V:4] C,12 |]  



